X:1
T:Title
L:1/8
M:6/8
I:linebreak $
K:D
V:1 treble nm="Voice"
V:1
"D" fdB"G" Bcd |"A7" ecA BAG |"D" FGA"A" ABc |"D" dcd"G" efg |"D" fdB"G" Bcd |"A7" ecA BAG | %6
"D" FGA"A" Aag |1"D" fdc d2 e :|2"D" fdc d2 B |:"D" Adf Adf |"G" gfg efg |"D" afd dcd | %12
"G" Bed"A" cBA |1"D" Adf Adf |"G" gfg efg |"D" afd"G" bge |"A" edc"D" d2 B :|2"D" fdB"G" gec | %18
"D" Pa3"G" bge |"D" Pa3"G" bge |"A" edc"D" d2 e |] %21
